!!!SOCIAL_FUNCTION:	songs of the buffalo society (dream societies)
!!!PDT:	1918

Specific Region: Dakotas, Minnesota, Montana, Nebraska
!!!REG: Dakotas and Montana
!!!LING_GROUP: Siouan
!!!LANG: Tone
!!!OTL@ENG: Their Votes Could Be Heard
!!!ONM: No. 98
**kern
*Imale
*clefF4
*k[b-e-a-d-g-]
*M3/4
*MM116
4f
16f
8.f
4f
=2
16.f
32e-
16e-
16e-
(16.e-
32d-)
8d-
4d-
=3
4e-
16e-
8.e-
4e-
=4||
*M2/4
16.e-
32e-
16d-
16d-
(16.d-
32B-)
8B-
=5||
*M3/4
4B-
8B-
8B-
8B-
8B-
=6
4e-
16.e-
32c
8d-
(16.e-
32B-)
8B-
=7
4B-
8F
8B-
8B-
8B-
=8||
*M2/4
8.F
16F
4F
=9||
*M3/4
12e-
12e-
12e-
8e-
8e-
8.d-
16d-
=10||
*M2/4
4B-
4r
=11
12B-
12B-
12B-
8.F
16B-
=12
4B-
8c
8B-
=13
8.F
16F
4F
==
*-
!!!CNT: Native American -- Sioux
!!!MRD: 1911/07//-1914///
!!!OCL: Frances Densmore
!!!YOR1: Teton Sioux Music, Bulletin 61,
!!!YOR2: Bureau of American Ethnology, Smithsonian Institution
!!!PPR: Government Printing Office
!!!PPP: Washington, D.C.
!!!PDT: 1918///
!!!ENC: Craig Stuart Sapp
!!!END: 2002/03/25/
!!!EEV: 2002/03/31/
!!!AGN: Society Song/Song of the Buffalo Society
!!!MPN@@SIO: Chetang'-hota
!!!MPN@ENG: Gray Hawk
!!!TXO: Teton Sioux
!!!MLC: Standing Rock Reservation, South Dakota, United States of America
!!!ARL: 45.9/-100.7#
!!!catalog: Catalogue No. 555
!!!PPG: 289
!!!EFL: 98/245
!!!VTS: 1181321369
